!!!OTL: Unicorn
!!!ONM: 149.
**kern
*clefG2
*k[b-e-]
*B-:
*M6/8
*MM80
{8f
=1
4g
8a
4b-
8d
=2
4e-
8f
4g}
{16f
16f
=3
4g
8b-
4b-
8a
=4
4.b-
4r}
{(16b-
16cc)
=5
4dd
8dd
(8dd
8cc)
8b-
=6
4cc
8dd
4dd}
{(16dd
16cc)
=7
4b-
8b-
4b-
8d
=8
4.f
4r}
{16b-
16b-
=9
4dd
8dd
(8dd
8cc)
8b-
=10
8cc
8cc
8dd
(8dd
8cc)}
{16f
16f
=11
4.b-
4b-
8d
=12
4.f
4r}
{8f
=13
4g
8a
4b-
16d
16d
=14
4e-
8f
4g}
{(16g
16e-)
=15
4d
16f
16f
4b-
8a
=16
4.b-
4r}
==
*-
!!!CNT: Folksongs of Maritime Canada
!!!MRD: 1928///-1932///
!!!OCL: Helen Creighton
!!!YOR: Songs and Ballads from Nova Scotia
!!!PPR: J.M. Dent & Sons, Limited
!!!PPP: Toronto, Canada
!!!PDT: 1932///
!!!reprint: Dover Publications, 1992: ISBN 0-486-21703-5
!!!ENC1: Craig Stuart Sapp (music and bibliographic data)                       
!!!ENC2: Marcus Pearce (phrase markings and key designations)                   
!!!ENC3: Darrell Conklin (phrase markings and key designations)   
!!!END: 2002/04/10/
!!!EEV: 2004/06/05
!!!MPN: Mr. Ben Henneberry
!!!PPG: 326
!!!EFL: 151/152
!!!ARE: Canada; Nova Scotia
!!!verses: 7
!!!VTS: 161103289
